dist/assets/img/animation.svg

<svg width="1973" height="235" viewBox="0 0 1973 235" fill="none" xmlns="http://www.w3.org/2000/svg">
<g opacity="0.5">
<path d="M750.6 232.826C746.838 232.826 743.075 230.978 743.075 227.283L694.164 49.8913L654.659 175.543C652.777 179.239 650.896 181.087 647.134 181.087C643.371 181.087 639.609 179.239 639.609 175.543L611.391 85L573.767 208.804C571.886 212.5 568.123 214.348 564.361 214.348C560.599 214.348 556.836 210.652 556.836 206.957L526.737 81.3044L513.568 120.109C511.687 123.804 509.806 125.652 506.044 125.652H380.003L357.429 214.348C355.547 218.044 351.785 221.739 348.023 219.891C344.26 219.891 340.498 216.196 340.498 212.5L314.161 70.2174L284.062 168.152C282.18 171.848 280.299 173.696 276.537 173.696C272.774 173.696 269.012 171.848 267.131 168.152L242.675 112.717L225.744 145.978C223.863 149.674 221.982 151.522 218.22 151.522C214.457 151.522 212.576 149.674 210.695 145.978L184.358 83.1522L158.021 162.609C156.14 166.304 152.377 168.152 148.615 168.152C144.853 168.152 141.09 164.457 141.09 160.761L124.159 66.5217L105.347 218.043C105.347 221.739 101.585 225.435 97.8226 225.435C94.0602 225.435 90.2977 223.587 88.4165 218.043L56.4361 92.3913L48.9113 120.109C47.0301 123.804 45.1489 127.5 39.5053 127.5H9.40602C3.76241 127.5 0 123.804 0 118.261C0 114.565 3.76241 110.87 9.40602 110.87H33.8617L48.9113 57.2826C50.7925 53.587 54.5549 51.7391 58.3173 51.7391C62.0797 51.7391 65.8421 55.4348 65.8421 59.1304L92.179 170L110.991 9.23913C112.872 3.69565 116.635 0 120.397 0C126.041 0 127.922 3.69565 129.803 7.3913L152.377 125.652L174.952 55.4348C176.833 51.7391 178.714 49.8913 182.477 49.8913C186.239 49.8913 190.002 51.7391 190.002 55.4348L214.457 121.957L229.507 90.5435C231.388 86.8478 235.15 86.8478 237.032 85C240.794 85 242.675 86.8478 244.556 90.5435L267.131 142.283L300.992 33.2609C302.874 29.5652 306.636 27.7174 310.398 27.7174C314.161 27.7174 317.923 31.413 317.923 35.1087L342.379 173.696L357.429 118.261C363.072 112.717 366.835 110.87 370.597 110.87H498.519L521.093 48.0435C522.974 44.3478 526.737 42.5 530.499 42.5C534.262 42.5 538.024 46.1957 538.024 49.8913L564.361 173.696L600.104 55.4348C601.985 51.7391 603.866 49.8913 607.629 49.8913C611.391 49.8913 615.153 51.7391 615.153 55.4348L643.371 145.978L682.877 18.4783C684.758 14.7826 686.639 12.9348 690.402 12.9348C694.164 12.9348 697.926 14.7826 697.926 18.4783L748.719 197.717L786.343 90.5435C788.224 86.8478 790.105 85 793.868 85C797.63 85 801.392 86.8478 801.392 90.5435L812.68 123.804L844.66 57.2826C846.541 53.587 850.304 51.7391 852.185 51.7391C855.947 51.7391 859.71 53.587 859.71 57.2826L897.334 153.37L919.908 116.413C925.552 110.87 927.433 110.87 931.195 110.87H976.344C981.988 110.87 985.75 114.565 985.75 120.109C985.75 125.652 981.988 129.348 976.344 129.348H934.958L906.74 177.391C904.859 181.087 901.096 181.087 899.215 181.087C895.453 181.087 893.571 179.239 891.69 175.543L854.066 81.3044L822.086 147.826C820.205 151.522 816.442 153.37 812.68 153.37C808.917 153.37 805.155 151.522 805.155 147.826L795.749 118.261L758.125 227.283C756.244 230.978 754.362 232.826 750.6 232.826Z" fill="url(#paint0_linear)" fill-opacity="0.3"/>
</g>
<g opacity="0.5">
<path d="M1737.6 234.826C1733.83 234.826 1730.07 232.978 1730.07 229.283L1681.16 51.8913L1641.65 177.543C1639.77 181.239 1637.89 183.087 1634.13 183.087C1630.37 183.087 1626.61 181.239 1626.61 177.543L1598.39 87L1560.76 210.804C1558.88 214.5 1555.12 216.348 1551.36 216.348C1547.59 216.348 1543.83 212.652 1543.83 208.957L1513.73 83.3044L1500.56 122.109C1498.68 125.804 1496.8 127.652 1493.04 127.652H1367L1344.42 216.348C1342.54 220.044 1338.78 223.739 1335.02 221.891C1331.26 221.891 1327.49 218.196 1327.49 214.5L1301.16 72.2174L1271.06 170.152C1269.18 173.848 1267.3 175.696 1263.53 175.696C1259.77 175.696 1256.01 173.848 1254.13 170.152L1229.67 114.717L1212.74 147.978C1210.86 151.674 1208.98 153.522 1205.22 153.522C1201.45 153.522 1199.57 151.674 1197.69 147.978L1171.35 85.1522L1145.02 164.609C1143.14 168.304 1139.37 170.152 1135.61 170.152C1131.85 170.152 1128.09 166.457 1128.09 162.761L1111.16 68.5217L1092.34 220.043C1092.34 223.739 1088.58 227.435 1084.82 227.435C1081.06 227.435 1077.29 225.587 1075.41 220.043L1043.43 94.3913L1035.91 122.109C1034.03 125.804 1032.14 129.5 1026.5 129.5H996.402C990.758 129.5 986.996 125.804 986.996 120.261C986.996 116.565 990.758 112.87 996.402 112.87H1020.86L1035.91 59.2826C1037.79 55.587 1041.55 53.7391 1045.31 53.7391C1049.08 53.7391 1052.84 57.4348 1052.84 61.1304L1079.18 172L1097.99 11.2391C1099.87 5.69565 1103.63 2 1107.39 2C1113.04 2 1114.92 5.69565 1116.8 9.3913L1139.37 127.652L1161.95 57.4348C1163.83 53.7391 1165.71 51.8913 1169.47 51.8913C1173.24 51.8913 1177 53.7391 1177 57.4348L1201.45 123.957L1216.5 92.5435C1218.38 88.8478 1222.15 88.8478 1224.03 87C1227.79 87 1229.67 88.8478 1231.55 92.5435L1254.13 144.283L1287.99 35.2609C1289.87 31.5652 1293.63 29.7174 1297.39 29.7174C1301.16 29.7174 1304.92 33.413 1304.92 37.1087L1329.38 175.696L1344.42 120.261C1350.07 114.717 1353.83 112.87 1357.59 112.87H1485.51L1508.09 50.0435C1509.97 46.3478 1513.73 44.5 1517.5 44.5C1521.26 44.5 1525.02 48.1957 1525.02 51.8913L1551.36 175.696L1587.1 57.4348C1588.98 53.7391 1590.86 51.8913 1594.62 51.8913C1598.39 51.8913 1602.15 53.7391 1602.15 57.4348L1630.37 147.978L1669.87 20.4783C1671.75 16.7826 1673.64 14.9348 1677.4 14.9348C1681.16 14.9348 1684.92 16.7826 1684.92 20.4783L1735.71 199.717L1773.34 92.5435C1775.22 88.8478 1777.1 87 1780.86 87C1784.63 87 1788.39 88.8478 1788.39 92.5435L1799.68 125.804L1831.66 59.2826C1833.54 55.587 1837.3 53.7391 1839.18 53.7391C1842.94 53.7391 1846.71 55.587 1846.71 59.2826L1884.33 155.37L1906.9 118.413C1912.55 112.87 1914.43 112.87 1918.19 112.87H1963.34C1968.98 112.87 1972.75 116.565 1972.75 122.109C1972.75 127.652 1968.98 131.348 1963.34 131.348H1921.95L1893.74 179.391C1891.85 183.087 1888.09 183.087 1886.21 183.087C1882.45 183.087 1880.57 181.239 1878.69 177.543L1841.06 83.3044L1809.08 149.826C1807.2 153.522 1803.44 155.37 1799.68 155.37C1795.91 155.37 1792.15 153.522 1792.15 149.826L1782.74 120.261L1745.12 229.283C1743.24 232.978 1741.36 234.826 1737.6 234.826Z" fill="url(#paint1_linear)" fill-opacity="0.3"/>
</g>
<defs>
<linearGradient id="paint0_linear" x1="492.875" y1="0" x2="492.875" y2="232.826" gradientUnits="userSpaceOnUse">
<stop stop-color="#FED031"/>
<stop offset="1" stop-color="#DC3708"/>
</linearGradient>
<linearGradient id="paint1_linear" x1="1479.87" y1="2" x2="1479.87" y2="234.826" gradientUnits="userSpaceOnUse">
<stop stop-color="#FED031"/>
<stop offset="1" stop-color="#DC3708"/>
</linearGradient>
</defs>
</svg>

<svg width="1973" height="235" fill="none" xmlns="http://www.w3.org/2000/svg"><path d="M750.6 232.826c-3.762 0-7.525-1.848-7.525-5.543L694.164 49.891l-39.505 125.652c-1.882 3.696-3.763 5.544-7.525 5.544-3.763 0-7.525-1.848-7.525-5.544L611.391 85l-37.624 123.804c-1.881 3.696-5.644 5.544-9.406 5.544-3.762 0-7.525-3.696-7.525-7.391L526.737 81.304l-13.169 38.805c-1.881 3.695-3.762 5.543-7.524 5.543H380.003l-22.574 88.696c-1.882 3.696-5.644 7.391-9.406 5.543-3.763 0-7.525-3.695-7.525-7.391L314.161 70.217l-30.099 97.935c-1.882 3.696-3.763 5.544-7.525 5.544-3.763 0-7.525-1.848-9.406-5.544l-24.456-55.435-16.931 33.261c-1.881 3.696-3.762 5.544-7.524 5.544-3.763 0-5.644-1.848-7.525-5.544l-26.337-62.826-26.337 79.457c-1.881 3.695-5.644 5.543-9.406 5.543-3.762 0-7.525-3.695-7.525-7.391l-16.931-94.24-18.812 151.522c0 3.696-3.762 7.392-7.524 7.392-3.763 0-7.525-1.848-9.406-7.392L56.436 92.391 48.91 120.11c-1.88 3.695-3.762 7.391-9.406 7.391H9.406C3.762 127.5 0 123.804 0 118.261c0-3.696 3.762-7.391 9.406-7.391h24.456l15.05-53.587c1.88-3.696 5.643-5.544 9.405-5.544 3.763 0 7.525 3.696 7.525 7.391L92.18 170 110.991 9.24c1.881-5.544 5.644-9.24 9.406-9.24 5.644 0 7.525 3.696 9.406 7.391l22.574 118.261 22.575-70.217c1.881-3.696 3.762-5.544 7.525-5.544 3.762 0 7.525 1.848 7.525 5.544l24.455 66.522 15.05-31.413c1.881-3.696 5.643-3.696 7.525-5.544 3.762 0 5.643 1.848 7.524 5.543l22.575 51.74 33.861-109.022c1.882-3.696 5.644-5.544 9.406-5.544 3.763 0 7.525 3.696 7.525 7.392l24.456 138.587 15.05-55.435c5.643-5.544 9.406-7.391 13.168-7.391h127.922l22.574-62.827c1.881-3.695 5.644-5.543 9.406-5.543 3.763 0 7.525 3.696 7.525 7.391l26.337 123.805 35.743-118.261c1.881-3.696 3.762-5.544 7.525-5.544 3.762 0 7.524 1.848 7.524 5.544l28.218 90.543 39.506-127.5c1.881-3.695 3.762-5.543 7.525-5.543 3.762 0 7.524 1.848 7.524 5.543l50.793 179.239 37.624-107.174c1.881-3.695 3.762-5.543 7.525-5.543 3.762 0 7.524 1.848 7.524 5.543l11.288 33.261 31.98-66.521c1.881-3.696 5.644-5.544 7.525-5.544 3.762 0 7.525 1.848 7.525 5.544l37.624 96.087 22.574-36.957c5.644-5.543 7.525-5.543 11.287-5.543h45.149c5.644 0 9.406 3.695 9.406 9.239 0 5.543-3.762 9.239-9.406 9.239h-41.386l-28.218 48.043c-1.881 3.696-5.644 3.696-7.525 3.696-3.762 0-5.644-1.848-7.525-5.544l-37.624-94.239-31.98 66.522c-1.881 3.696-5.644 5.544-9.406 5.544-3.763 0-7.525-1.848-7.525-5.544l-9.406-29.565-37.624 109.022c-1.881 3.695-3.763 5.543-7.525 5.543z" fill="url(#paint0_linear)" fill-opacity=".3" opacity=".5"/><path d="M1737.6 234.826c-3.77 0-7.53-1.848-7.53-5.543l-48.91-177.392-39.51 125.652c-1.88 3.696-3.76 5.544-7.52 5.544s-7.52-1.848-7.52-5.544L1598.39 87l-37.63 123.804c-1.88 3.696-5.64 5.544-9.4 5.544-3.77 0-7.53-3.696-7.53-7.391l-30.1-125.653-13.17 38.805c-1.88 3.695-3.76 5.543-7.52 5.543H1367l-22.58 88.696c-1.88 3.696-5.64 7.391-9.4 5.543-3.76 0-7.53-3.695-7.53-7.391l-26.33-142.283-30.1 97.935c-1.88 3.696-3.76 5.544-7.53 5.544-3.76 0-7.52-1.848-9.4-5.544l-24.46-55.435-16.93 33.261c-1.88 3.696-3.76 5.544-7.52 5.544-3.77 0-5.65-1.848-7.53-5.544l-26.34-62.826-26.33 79.457c-1.88 3.695-5.65 5.543-9.41 5.543s-7.52-3.695-7.52-7.391l-16.93-94.24-18.82 151.522c0 3.696-3.76 7.392-7.52 7.392s-7.53-1.848-9.41-7.392l-31.98-125.652-7.52 27.718c-1.88 3.695-3.77 7.391-9.41 7.391h-30.098c-5.644 0-9.406-3.696-9.406-9.239 0-3.696 3.762-7.391 9.406-7.391h24.458l15.05-53.587c1.88-3.696 5.64-5.544 9.4-5.544 3.77 0 7.53 3.696 7.53 7.391L1079.18 172l18.81-160.76c1.88-5.544 5.64-9.24 9.4-9.24 5.65 0 7.53 3.696 9.41 7.391l22.57 118.261 22.58-70.217c1.88-3.696 3.76-5.544 7.52-5.544 3.77 0 7.53 1.848 7.53 5.544l24.45 66.522 15.05-31.413c1.88-3.696 5.65-3.696 7.53-5.544 3.76 0 5.64 1.848 7.52 5.543l22.58 51.74 33.86-109.022c1.88-3.696 5.64-5.544 9.4-5.544 3.77 0 7.53 3.696 7.53 7.392l24.46 138.587 15.04-55.435c5.65-5.544 9.41-7.391 13.17-7.391h127.92l22.58-62.827c1.88-3.695 5.64-5.543 9.41-5.543 3.76 0 7.52 3.696 7.52 7.391l26.34 123.805 35.74-118.261c1.88-3.696 3.76-5.544 7.52-5.544 3.77 0 7.53 1.848 7.53 5.544l28.22 90.543 39.5-127.5c1.88-3.695 3.77-5.543 7.53-5.543 3.76 0 7.52 1.848 7.52 5.543l50.79 179.239 37.63-107.174c1.88-3.695 3.76-5.543 7.52-5.543 3.77 0 7.53 1.848 7.53 5.543l11.29 33.261 31.98-66.521c1.88-3.696 5.64-5.544 7.52-5.544 3.76 0 7.53 1.848 7.53 5.544l37.62 96.087 22.57-36.957c5.65-5.543 7.53-5.543 11.29-5.543h45.15c5.64 0 9.41 3.695 9.41 9.239 0 5.543-3.77 9.239-9.41 9.239h-41.39l-28.21 48.043c-1.89 3.696-5.65 3.696-7.53 3.696-3.76 0-5.64-1.848-7.52-5.544l-37.63-94.239-31.98 66.522c-1.88 3.696-5.64 5.544-9.4 5.544-3.77 0-7.53-1.848-7.53-5.544l-9.41-29.565-37.62 109.022c-1.88 3.695-3.76 5.543-7.52 5.543z" fill="url(#paint1_linear)" fill-opacity=".3" opacity=".5"/><defs><linearGradient id="paint0_linear" x1="492.875" y1="0" x2="492.875" y2="232.826" gradientUnits="userSpaceOnUse"><stop stop-color="#FED031"/><stop offset="1" stop-color="#DC3708"/></linearGradient><linearGradient id="paint1_linear" x1="1479.87" y1="2" x2="1479.87" y2="234.826" gradientUnits="userSpaceOnUse"><stop stop-color="#FED031"/><stop offset="1" stop-color="#DC3708"/></linearGradient></defs></svg>
